<?xml version="1.0" encoding="UTF-8"?>
<map version="1.10" tiledversion="1.11.2" orientation="orthogonal" renderorder="right-down" width="20" height="20" tilewidth="16" tileheight="16" infinite="0" nextlayerid="23" nextobjectid="1">
 <tileset firstgid="1" name="Caves" tilewidth="16" tileheight="16" tilecount="1620" columns="36">
  <image source="../../../../../Escritorio/UNI/3/DVI/Farm RPG - Tiny Asset Pack - (All in One)/Farm/Tileset/Modular/Caves.png" width="576" height="720"/>
 </tileset>
 <tileset firstgid="1621" name="Tileset Grass Caves" tilewidth="16" tileheight="16" tilecount="192" columns="24">
  <image source="../../../../../Escritorio/UNI/3/DVI/Farm RPG - Tiny Asset Pack - (All in One)/Farm/Tileset/Modular/Tileset Grass Caves.png" width="384" height="128"/>
 </tileset>
 <tileset firstgid="1813" name="bonfire Fish" tilewidth="16" tileheight="16" tilecount="36" columns="18">
  <image source="../../../../../Escritorio/UNI/3/DVI/Farm RPG - Tiny Asset Pack - (All in One)/Exterior/bonfire Fish.png" width="288" height="32"/>
  <tile id="0">
   <animation>
    <frame tileid="0" duration="300"/>
    <frame tileid="3" duration="300"/>
    <frame tileid="6" duration="300"/>
    <frame tileid="9" duration="300"/>
    <frame tileid="12" duration="300"/>
    <frame tileid="15" duration="300"/>
   </animation>
  </tile>
  <tile id="1">
   <animation>
    <frame tileid="1" duration="300"/>
    <frame tileid="4" duration="300"/>
    <frame tileid="7" duration="300"/>
    <frame tileid="10" duration="300"/>
    <frame tileid="13" duration="300"/>
    <frame tileid="16" duration="300"/>
   </animation>
  </tile>
  <tile id="18">
   <animation>
    <frame tileid="18" duration="300"/>
    <frame tileid="21" duration="300"/>
    <frame tileid="24" duration="300"/>
    <frame tileid="27" duration="300"/>
    <frame tileid="30" duration="300"/>
    <frame tileid="33" duration="300"/>
   </animation>
  </tile>
  <tile id="19">
   <animation>
    <frame tileid="19" duration="300"/>
    <frame tileid="22" duration="300"/>
    <frame tileid="25" duration="300"/>
    <frame tileid="28" duration="300"/>
    <frame tileid="31" duration="300"/>
    <frame tileid="34" duration="300"/>
   </animation>
  </tile>
 </tileset>
 <tileset firstgid="1849" name="entering" tilewidth="16" tileheight="16" tilecount="48" columns="8">
  <image source="../../../../../Escritorio/UNI/3/DVI/Farm RPG - Tiny Asset Pack - (All in One)/Enemy/Spike/entering.png" width="128" height="96"/>
  <tile id="0">
   <animation>
    <frame tileid="6" duration="4000"/>
    <frame tileid="4" duration="300"/>
    <frame tileid="2" duration="300"/>
    <frame tileid="0" duration="3000"/>
    <frame tileid="2" duration="300"/>
    <frame tileid="4" duration="300"/>
   </animation>
  </tile>
  <tile id="1">
   <animation>
    <frame tileid="7" duration="4000"/>
    <frame tileid="5" duration="300"/>
    <frame tileid="3" duration="300"/>
    <frame tileid="1" duration="3000"/>
    <frame tileid="3" duration="300"/>
    <frame tileid="5" duration="300"/>
   </animation>
  </tile>
  <tile id="8">
   <animation>
    <frame tileid="14" duration="4000"/>
    <frame tileid="12" duration="300"/>
    <frame tileid="10" duration="300"/>
    <frame tileid="8" duration="3000"/>
    <frame tileid="10" duration="300"/>
    <frame tileid="12" duration="300"/>
   </animation>
  </tile>
  <tile id="9">
   <animation>
    <frame tileid="15" duration="4000"/>
    <frame tileid="13" duration="300"/>
    <frame tileid="11" duration="300"/>
    <frame tileid="9" duration="3000"/>
    <frame tileid="11" duration="300"/>
    <frame tileid="13" duration="300"/>
   </animation>
  </tile>
 </tileset>
 <tileset firstgid="1897" name="chest" tilewidth="16" tileheight="16" tilecount="32" columns="16">
  <image source="../../../../../Escritorio/UNI/3/DVI/Farm RPG - Tiny Asset Pack - (All in One)/Exterior/chest.png" width="256" height="32"/>
 </tileset>
 <tileset firstgid="1929" name="Exterior" tilewidth="16" tileheight="16" tilecount="352" columns="32">
  <image source="../../../../../Escritorio/UNI/3/DVI/Farm RPG - Tiny Asset Pack - (All in One)/Exterior/Exterior.png" width="512" height="176"/>
 </tileset>
 <tileset firstgid="2281" name="dog bathtub" tilewidth="16" tileheight="16" tilecount="8" columns="4">
  <image source="../../../../../Escritorio/UNI/3/DVI/Farm RPG - Tiny Asset Pack - (All in One)/Exterior/dog bathtub.png" width="64" height="32"/>
 </tileset>
 <tileset firstgid="2289" name="Lamp " tilewidth="16" tileheight="16" tilecount="3" columns="3">
  <image source="../../../../../Escritorio/UNI/3/DVI/Farm RPG - Tiny Asset Pack - (All in One)/Exterior/Lamp .png" width="48" height="16"/>
 </tileset>
 <tileset firstgid="2292" name="Props Mine" tilewidth="16" tileheight="16" tilecount="300" columns="20">
  <image source="../../../../../Escritorio/UNI/3/DVI/Farm RPG - Tiny Asset Pack - (All in One)/Farm/Props/Mine/Props Mine.png" width="320" height="240"/>
  <tile id="32">
   <animation>
    <frame tileid="32" duration="150"/>
    <frame tileid="33" duration="150"/>
    <frame tileid="34" duration="150"/>
    <frame tileid="35" duration="150"/>
   </animation>
  </tile>
  <tile id="52">
   <animation>
    <frame tileid="52" duration="150"/>
    <frame tileid="53" duration="150"/>
    <frame tileid="54" duration="150"/>
    <frame tileid="55" duration="150"/>
   </animation>
  </tile>
 </tileset>
 <tileset firstgid="2592" name="stone with minerals" tilewidth="16" tileheight="16" tilecount="187" columns="11">
  <image source="../../../../../Escritorio/UNI/3/DVI/Farm RPG - Tiny Asset Pack - (All in One)/Farm/Props/Mine/stone with minerals.png" width="176" height="272"/>
 </tileset>
 <tileset firstgid="2779" name="Cave Water Ground animations tiles" tilewidth="16" tileheight="16" tilecount="384" columns="24">
  <image source="../../../../../Escritorio/UNI/3/DVI/Farm RPG - Tiny Asset Pack - (All in One)/Farm/Tileset/Modular/Cave Water Ground animations tiles.png" width="384" height="256"/>
  <tile id="8">
   <animation>
    <frame tileid="8" duration="150"/>
    <frame tileid="104" duration="150"/>
    <frame tileid="200" duration="150"/>
    <frame tileid="296" duration="150"/>
    <frame tileid="296" duration="150"/>
    <frame tileid="200" duration="150"/>
    <frame tileid="104" duration="150"/>
    <frame tileid="8" duration="150"/>
   </animation>
  </tile>
  <tile id="29">
   <animation>
    <frame tileid="29" duration="150"/>
    <frame tileid="125" duration="150"/>
    <frame tileid="221" duration="150"/>
    <frame tileid="317" duration="150"/>
    <frame tileid="317" duration="150"/>
    <frame tileid="221" duration="150"/>
    <frame tileid="125" duration="150"/>
    <frame tileid="29" duration="150"/>
   </animation>
  </tile>
  <tile id="32">
   <animation>
    <frame tileid="32" duration="150"/>
    <frame tileid="128" duration="150"/>
    <frame tileid="224" duration="150"/>
    <frame tileid="320" duration="150"/>
    <frame tileid="320" duration="150"/>
    <frame tileid="224" duration="150"/>
    <frame tileid="128" duration="150"/>
    <frame tileid="32" duration="150"/>
   </animation>
  </tile>
 </tileset>
 <tileset firstgid="3163" name="ALL props seasons" tilewidth="16" tileheight="16" tilecount="264" columns="22">
  <image source="../../../../../Escritorio/UNI/3/DVI/Farm RPG - Tiny Asset Pack - (All in One)/Farm/Tileset/Modular/ALL props seasons.png" width="352" height="192"/>
 </tileset>
 <tileset firstgid="3427" name="Mine props" tilewidth="16" tileheight="16" tilecount="60" columns="4">
  <image source="../../../../../Escritorio/UNI/3/DVI/Farm RPG - Tiny Asset Pack - (All in One)/Farm/Props/Mine/Mine props.png" width="64" height="240"/>
  <tile id="20">
   <animation>
    <frame tileid="20" duration="150"/>
    <frame tileid="21" duration="150"/>
    <frame tileid="22" duration="150"/>
    <frame tileid="23" duration="150"/>
    <frame tileid="23" duration="150"/>
    <frame tileid="22" duration="150"/>
    <frame tileid="21" duration="150"/>
    <frame tileid="20" duration="150"/>
   </animation>
  </tile>
  <tile id="40">
   <animation>
    <frame tileid="40" duration="150"/>
    <frame tileid="41" duration="150"/>
    <frame tileid="42" duration="150"/>
    <frame tileid="43" duration="150"/>
    <frame tileid="43" duration="150"/>
    <frame tileid="42" duration="150"/>
    <frame tileid="41" duration="150"/>
    <frame tileid="40" duration="150"/>
   </animation>
  </tile>
 </tileset>
 <tileset firstgid="3487" name="Light Effect" tilewidth="16" tileheight="16" tilecount="40" columns="5">
  <image source="../../../../../Escritorio/UNI/3/DVI/Farm RPG - Tiny Asset Pack - (All in One)/Light Effect.png" width="80" height="128"/>
 </tileset>
 <tileset firstgid="3527" name="Exterior Beach" tilewidth="16" tileheight="16" tilecount="360" columns="24">
  <image source="../../../../../Escritorio/UNI/3/DVI/Farm RPG - Tiny Asset Pack - (All in One)/Exterior/Beach/Exterior Beach.png" width="384" height="240"/>
 </tileset>
 <tileset firstgid="3887" source="../../../../../Escritorio/UNI/3/DVI/TILED/Cueva/Path tiles.tsx"/>
 <group id="15" name="Agua">
  <layer id="12" name="Agua" width="20" height="20">
   <data encoding="csv">
0,0,0,0,0,0,0,0,0,0,0,0,0,0,0,0,0,0,0,0,
0,0,0,0,0,0,0,0,0,0,0,0,0,0,0,0,0,0,0,0,
0,0,0,0,0,0,0,0,0,0,0,0,0,0,0,0,0,0,0,0,
0,0,0,0,0,0,0,0,0,0,0,0,0,0,0,0,0,0,0,0,
0,0,0,0,0,0,0,0,0,0,0,0,0,0,0,0,0,0,0,0,
0,0,0,0,0,0,0,0,0,0,0,0,0,0,0,0,0,0,0,0,
0,0,0,0,0,0,0,0,0,0,0,0,0,0,0,0,0,0,0,0,
0,0,0,0,0,0,0,0,0,0,0,0,0,0,0,0,0,0,0,0,
0,0,0,0,0,0,0,0,0,0,0,0,0,0,0,0,0,0,0,0,
0,0,0,0,0,0,0,0,0,0,0,0,0,0,0,0,0,0,0,0,
0,0,0,0,0,0,0,0,0,0,0,0,0,0,0,0,0,0,0,0,
0,0,0,0,0,0,0,0,0,0,0,0,0,0,0,0,0,0,0,0,
0,0,0,0,0,0,0,0,0,0,0,0,0,0,0,0,0,0,0,0,
0,0,0,0,0,0,0,0,0,0,0,0,0,0,0,0,0,0,0,0,
0,0,0,0,0,0,0,0,0,0,0,0,0,0,0,0,0,0,0,0,
0,0,0,0,0,0,0,0,0,0,0,0,0,0,0,0,0,2848,2848,0,
0,0,0,0,0,0,0,0,0,0,0,0,0,0,0,0,2848,2848,2848,0,
0,0,0,0,0,0,0,0,0,0,0,0,0,0,0,2848,2848,2848,2848,0,
0,0,0,0,0,0,0,0,0,0,0,0,0,0,0,2848,2848,2848,2848,0,
0,0,0,0,0,0,0,0,0,0,0,0,0,0,0,0,0,0,0,0
</data>
  </layer>
  <layer id="13" name="Decoracion Agua" width="20" height="20">
   <data encoding="csv">
0,0,0,0,0,0,0,0,0,0,0,0,0,0,0,0,0,0,0,0,
0,0,0,0,0,0,0,0,0,0,0,0,0,0,0,0,0,0,0,0,
0,0,0,0,0,0,0,0,0,0,0,0,0,0,0,0,0,0,0,0,
0,0,0,0,0,0,0,0,0,0,0,0,0,0,0,0,0,0,0,0,
0,0,0,0,0,0,0,0,0,0,0,0,0,0,0,0,0,0,0,0,
0,0,0,0,0,0,0,0,0,0,0,0,0,0,0,0,0,0,0,0,
0,0,0,0,0,0,0,0,0,0,0,0,0,0,0,0,0,0,0,0,
0,0,0,0,0,0,0,0,0,0,0,0,0,0,0,0,0,0,0,0,
0,0,0,0,0,0,0,0,0,0,0,0,0,0,0,0,0,0,0,0,
0,0,0,0,0,0,0,0,0,0,0,0,0,0,0,0,0,0,0,0,
0,0,0,0,0,0,0,0,0,0,0,0,0,0,0,0,0,0,0,0,
0,0,0,0,0,0,0,0,0,0,0,0,0,0,0,0,0,0,0,0,
0,0,0,0,0,0,0,0,0,0,0,0,0,0,0,0,0,0,0,0,
0,0,0,0,0,0,0,0,0,0,0,0,0,0,0,0,0,0,0,0,
0,0,0,0,0,0,0,0,0,0,0,0,0,0,0,0,0,0,0,0,
0,0,0,0,0,0,0,0,0,0,0,0,0,0,0,0,0,0,0,0,
0,0,0,0,0,0,0,0,0,0,0,0,0,0,0,0,0,3324,0,0,
0,0,0,0,0,0,0,0,0,0,0,0,0,0,0,0,3467,0,3317,0,
0,0,0,0,0,0,0,0,0,0,0,0,0,0,0,0,3325,0,3447,0,
0,0,0,0,0,0,0,0,0,0,0,0,0,0,0,0,0,0,0,0
</data>
  </layer>
 </group>
 <group id="16" name="Suelo">
  <layer id="1" name="Roca" width="20" height="20">
   <data encoding="csv">
149,149,149,149,149,149,149,149,149,149,149,149,149,149,149,149,149,149,149,149,
149,149,149,149,149,149,149,149,149,149,149,149,149,149,149,149,149,149,149,149,
149,149,149,149,149,149,149,149,149,149,149,149,149,149,149,149,149,149,149,149,
149,149,149,149,149,149,149,149,149,149,149,149,149,149,149,149,149,149,149,149,
149,149,149,149,149,149,149,149,149,149,149,149,149,149,149,149,149,149,149,149,
149,149,149,149,149,149,149,149,149,149,149,149,149,149,149,149,149,149,149,149,
149,149,149,149,149,149,149,149,149,149,149,149,149,149,149,149,149,149,149,149,
149,149,149,149,149,149,149,149,149,149,149,149,149,149,149,149,149,149,149,149,
149,149,149,149,149,149,149,149,149,149,149,149,149,149,149,149,149,149,149,149,
149,149,149,149,149,149,149,149,149,149,149,149,149,149,149,149,149,149,149,149,
149,149,149,149,149,149,149,149,149,149,149,149,149,149,149,149,149,149,149,149,
149,149,149,149,149,149,149,149,149,149,149,149,149,149,149,149,149,149,149,149,
149,149,149,149,149,149,149,149,149,149,149,149,149,149,149,149,149,149,149,149,
149,149,149,149,149,149,149,149,149,149,149,149,149,149,149,149,149,149,149,149,
149,149,149,149,149,149,149,149,149,149,149,149,149,149,149,149,149,149,149,149,
149,149,149,149,149,149,149,149,149,149,149,149,149,149,149,149,149,2787,0,149,
149,149,149,149,149,149,149,149,149,149,149,149,149,149,149,149,2787,2808,0,149,
149,149,149,149,149,149,149,149,149,149,149,149,149,149,149,2787,2808,0,0,149,
149,149,149,149,149,149,149,149,149,149,149,149,149,149,149,2811,0,0,0,149,
149,149,149,149,149,149,149,149,149,149,149,149,149,149,149,149,149,149,149,149
</data>
  </layer>
  <layer id="2" name="Tierra" width="20" height="20">
   <data encoding="csv">
0,0,0,0,0,0,0,0,0,0,0,0,0,0,0,0,0,0,0,0,
0,0,0,0,0,0,0,0,0,0,0,0,0,0,0,0,0,0,0,0,
0,0,0,0,0,0,0,0,0,0,0,0,0,0,0,0,0,0,0,0,
0,0,0,0,0,0,0,0,0,0,0,0,0,0,0,0,0,0,0,0,
0,0,0,0,0,0,0,0,0,0,0,0,0,0,0,0,0,0,0,0,
0,106,106,106,106,106,106,106,0,0,0,0,0,0,0,0,0,0,0,0,
0,106,106,106,106,106,106,106,106,106,106,108,0,0,0,0,0,0,0,0,
0,106,106,106,106,106,106,103,142,142,142,144,0,0,0,0,0,0,0,0,
0,106,106,106,106,106,103,144,0,0,0,0,0,0,0,0,0,0,0,0,
0,106,106,106,106,103,144,0,0,0,0,0,0,0,0,0,0,0,0,0,
0,142,142,142,142,144,0,0,0,0,0,0,0,0,0,0,0,0,0,0,
0,0,0,0,0,0,0,0,0,0,0,0,0,0,0,0,0,0,0,0,
0,0,0,0,0,0,0,0,0,0,0,0,0,0,0,0,0,33,36,0,
0,0,0,0,0,0,0,0,0,0,0,0,0,33,35,35,35,66,108,0,
0,0,0,0,0,0,0,0,0,0,0,0,0,141,142,102,103,142,144,0,
0,0,36,0,0,0,0,0,0,0,0,0,0,0,0,141,144,0,0,0,
0,106,108,0,0,0,0,1629,1631,1632,0,0,0,0,0,0,0,0,0,0,
0,106,67,0,0,0,1629,1650,1678,1651,1631,1632,0,0,0,0,0,0,0,0,
0,106,106,0,0,0,1678,1678,1678,1678,1678,1651,1632,0,0,0,0,0,0,0,
0,0,0,0,0,0,0,0,0,1678,1678,1678,0,0,0,0,0,0,0,0
</data>
  </layer>
  <layer id="9" name="Decoracion Suelo" width="20" height="20">
   <data encoding="csv">
0,0,0,0,0,0,0,0,0,0,0,0,0,0,0,0,0,0,0,0,
0,0,0,0,0,0,0,0,0,0,0,0,0,0,0,0,0,0,0,0,
0,0,0,0,0,0,0,0,0,0,0,0,0,0,0,0,0,0,0,0,
0,0,0,0,0,0,0,0,0,0,0,0,0,0,0,0,0,0,0,0,
0,0,0,0,0,0,0,0,0,0,0,0,0,0,0,0,0,0,0,0,
0,0,0,0,0,0,0,0,0,0,0,0,0,0,0,0,0,2308,0,0,
0,0,2311,0,0,0,0,0,2311,0,0,0,0,0,0,0,0,0,0,0,
0,0,0,0,0,2310,0,0,0,0,0,0,0,0,0,0,0,0,0,0,
0,0,0,0,0,0,0,0,0,0,0,0,0,0,0,0,0,0,0,0,
0,0,2309,0,0,0,0,0,0,0,0,0,0,0,0,0,2306,0,0,0,
0,0,0,0,0,0,0,0,0,0,0,0,0,0,0,0,0,0,0,0,
0,0,0,0,0,0,0,0,0,0,0,2307,0,0,0,0,0,0,0,0,
0,0,0,0,0,0,2308,0,0,0,0,0,0,0,0,0,0,0,0,0,
0,0,0,0,0,0,0,0,0,0,0,0,0,0,0,0,0,0,0,0,
0,0,0,0,0,0,0,0,0,0,0,0,0,0,0,0,0,0,0,0,
0,0,0,0,0,0,0,0,0,0,0,0,0,0,2311,0,0,0,0,0,
0,0,0,0,2306,0,0,0,0,0,0,0,0,0,0,0,0,0,0,0,
0,2311,0,0,0,0,0,0,0,0,0,0,0,0,0,0,0,0,0,0,
0,0,0,0,0,0,0,0,0,0,0,0,0,0,0,0,0,0,0,0,
0,0,0,0,0,0,0,0,0,0,0,0,0,0,0,0,0,0,0,0
</data>
  </layer>
 </group>
 <group id="18" name="Vertical">
  <layer id="3" name="Paredes" width="20" height="20">
   <data encoding="csv">
82,82,82,2147485944,2313,82,82,82,2336,82,82,82,82,82,2147485944,2294,82,82,82,2147485964,
82,2353,82,82,2315,2316,2335,2356,82,2352,82,2332,82,82,2373,82,82,79,118,78,
82,82,2312,82,82,82,82,2147485983,2393,82,2292,82,82,2315,82,2147485964,79,300,154,45,
79,118,118,118,118,118,118,78,82,82,82,2353,2313,82,2353,82,84,336,0,45,
84,154,154,154,154,154,154,117,118,78,82,82,82,2332,82,2333,84,0,0,45,
84,0,0,0,0,0,0,153,154,117,118,118,78,82,79,118,120,0,0,45,
84,0,0,0,0,0,0,0,0,153,154,154,117,118,120,154,156,0,0,45,
84,0,0,0,0,0,0,0,0,0,0,0,153,154,156,0,0,0,0,45,
84,0,0,0,0,0,0,0,0,0,0,0,0,0,0,0,0,0,0,45,
84,0,0,0,0,0,0,0,0,0,0,0,0,0,0,0,0,0,9,42,
43,12,0,0,0,0,0,0,0,0,110,111,112,0,0,0,9,11,42,2336,
82,84,0,0,0,0,0,0,0,0,146,147,148,0,109,0,45,82,2147486002,2393,
2354,84,0,0,0,0,0,0,0,0,0,0,0,0,145,0,117,118,78,82,
3221227827,84,0,0,109,0,0,0,0,0,0,0,0,0,0,0,153,154,45,2355,
82,84,0,0,145,0,0,0,0,0,0,0,0,0,0,0,0,0,117,78,
79,120,0,0,0,0,0,0,0,0,0,0,0,0,0,0,0,0,153,45,
84,156,0,0,0,0,0,0,0,0,0,0,0,0,0,0,0,0,0,45,
84,0,0,9,12,0,0,0,0,0,0,0,0,0,0,0,0,0,0,45,
84,0,9,42,43,11,12,0,0,0,0,0,0,0,0,0,0,0,0,45,
43,11,42,2316,2315,82,43,11,11,12,0,9,11,11,11,11,11,11,11,42
</data>
  </layer>
  <layer id="8" name="Vallas" width="20" height="20">
   <data encoding="csv">
0,0,0,0,0,0,0,0,0,0,0,0,0,0,0,0,0,0,0,0,
0,0,0,0,0,0,0,0,0,0,0,0,0,0,0,0,0,0,0,0,
0,0,0,0,0,0,0,0,0,0,0,0,0,0,0,0,0,0,0,0,
0,2357,2358,2359,2359,2360,2361,0,0,0,0,0,0,0,0,0,0,0,0,0,
0,2377,2378,2379,2379,2380,2381,0,0,0,0,0,0,0,0,0,0,0,0,0,
0,0,0,0,0,0,0,0,0,2397,2398,2359,0,0,0,0,0,0,0,0,
0,0,0,0,0,0,0,0,0,2417,2418,2379,0,0,0,0,0,0,0,0,
0,0,0,0,0,0,0,0,0,0,0,0,0,0,0,0,0,0,0,0,
0,0,0,0,0,0,0,0,0,0,0,0,0,0,0,0,0,0,0,0,
0,0,0,0,0,0,0,0,0,0,0,0,0,0,0,0,0,0,0,0,
0,0,0,0,0,0,0,0,0,0,2397,2398,2399,0,0,0,0,0,0,0,
0,0,0,0,0,0,0,0,0,0,2417,2418,2419,0,2398,0,0,0,0,0,
0,0,0,0,0,0,0,0,0,0,0,0,0,0,2418,0,0,0,0,0,
0,0,0,0,2398,0,0,0,0,0,0,0,0,0,0,0,0,0,0,0,
0,0,0,0,2418,0,0,0,0,0,0,0,0,0,0,0,0,0,0,0,
0,0,0,0,0,0,0,0,0,0,0,0,0,0,0,0,0,0,0,0,
0,0,0,0,0,0,0,0,0,0,0,0,0,0,0,0,0,0,0,0,
0,0,0,0,0,0,0,0,0,2357,2358,2361,0,0,0,0,0,0,0,0,
0,0,0,0,0,0,0,0,0,2377,0,2381,0,0,0,0,0,0,0,0,
0,0,0,0,0,0,0,0,0,0,0,0,0,0,0,0,0,0,0,0
</data>
  </layer>
 </group>
 <group id="19" name="Decoracion">
  <layer id="6" name="Decoracion Detras" width="20" height="20">
   <data encoding="csv">
0,0,0,0,0,0,0,0,0,0,0,0,0,0,0,0,0,0,0,0,
0,0,0,0,0,0,0,0,0,0,0,0,0,0,0,0,0,0,0,0,
0,0,0,0,0,0,0,0,0,0,0,0,0,0,0,0,0,0,0,0,
0,0,0,0,0,0,0,0,0,0,0,0,0,0,0,0,0,0,0,0,
0,0,0,0,2089,2090,0,0,0,0,0,0,0,0,0,0,0,0,0,0,
0,0,0,0,2121,2122,0,0,0,0,0,0,0,0,0,0,0,0,0,0,
0,0,0,0,0,0,0,0,0,0,0,0,0,0,0,0,0,0,0,0,
0,0,0,0,0,0,0,0,0,0,0,0,0,0,0,0,0,0,0,0,
0,0,0,0,0,0,0,0,0,0,0,0,0,0,0,0,0,0,0,0,
0,0,0,0,0,0,0,0,0,0,0,0,0,0,0,0,0,0,0,0,
0,0,0,0,0,0,0,0,0,0,0,0,0,0,0,0,0,0,0,0,
0,0,0,0,0,0,0,0,0,0,0,0,0,0,0,0,0,0,0,0,
0,0,0,0,0,0,0,0,0,0,0,0,0,0,0,0,0,0,0,0,
0,0,0,0,0,0,0,0,0,0,0,0,0,0,0,2141,2142,2143,0,0,
0,0,0,0,0,0,0,0,0,0,0,0,0,0,0,2173,2174,2175,0,0,
0,0,0,0,0,0,0,0,0,0,0,0,0,0,0,0,0,0,0,0,
0,0,0,0,0,0,0,0,0,0,0,0,0,0,0,0,0,0,0,0,
0,0,0,0,0,0,0,0,0,0,0,0,0,0,0,0,0,0,0,0,
0,0,0,0,0,0,0,0,0,0,0,0,0,0,0,0,0,0,0,0,
0,0,0,0,0,0,0,0,0,0,0,0,0,0,0,0,0,0,0,0
</data>
  </layer>
  <layer id="4" name="Decoracion" width="20" height="20">
   <data encoding="csv">
0,0,0,0,0,0,0,0,0,0,0,0,0,0,0,0,0,0,0,0,
0,0,0,0,0,0,0,0,0,0,0,0,0,0,0,0,0,0,0,0,
0,0,0,0,0,0,0,0,0,0,0,0,0,0,0,0,0,0,0,0,
0,0,0,2066,2067,0,0,0,0,0,0,0,0,0,0,0,0,0,2758,0,
0,1813,1814,2098,2099,0,0,0,0,0,0,0,0,0,0,0,0,0,0,0,
0,1831,1832,0,0,1927,1928,0,0,0,2223,2224,0,0,0,0,0,0,0,0,
0,0,0,1610616588,1610616612,0,0,2764,2765,0,2256,0,2129,2130,2131,0,0,0,0,0,
0,0,0,1610616587,1610616611,0,0,0,0,0,0,0,2161,2162,2163,0,0,0,0,0,
0,2029,0,0,0,0,0,0,0,0,0,0,2193,2194,2195,0,0,0,0,0,
0,2028,0,0,0,0,0,0,0,0,0,0,0,0,0,0,0,2760,0,0,
0,0,0,0,0,0,0,0,0,0,0,0,0,0,0,0,0,0,0,0,
0,0,0,0,0,0,0,0,0,0,0,0,0,0,0,0,0,0,0,0,
0,0,0,0,0,0,0,0,0,0,0,0,0,0,0,0,0,0,0,0,
0,0,0,0,0,0,0,0,0,0,0,0,0,0,0,0,0,0,0,0,
0,0,2762,0,0,0,0,0,0,0,0,0,0,0,0,2283,2284,0,0,0,
0,0,1936,0,0,0,0,0,0,0,0,0,0,0,0,2287,2288,0,2324,0,
0,0,0,0,0,0,0,0,0,0,1984,0,0,0,0,0,0,0,2344,0,
0,0,0,0,0,0,0,0,0,0,0,0,0,0,0,0,0,0,0,0,
0,2757,0,0,0,0,0,2759,0,0,0,0,0,2763,2760,0,0,0,0,0,
0,0,0,0,0,0,0,0,0,0,0,0,0,0,0,0,0,0,0,0
</data>
  </layer>
  <layer id="10" name="Decoracion Vallas" width="20" height="20">
   <data encoding="csv">
0,0,0,0,0,0,0,0,0,0,0,0,0,0,0,0,0,0,0,0,
0,0,0,0,0,0,0,0,0,0,0,0,0,0,0,0,0,0,0,0,
0,0,0,0,0,0,0,0,0,0,0,0,0,0,0,0,0,0,0,0,
0,0,0,0,0,0,0,0,0,0,0,0,0,0,0,0,0,0,0,0,
0,0,0,0,0,0,0,0,0,0,0,0,0,0,0,0,0,0,0,0,
0,0,0,0,0,0,0,0,0,0,0,0,0,0,0,0,0,0,0,0,
0,0,0,0,0,0,0,0,0,0,0,0,0,0,0,0,0,0,0,0,
0,0,0,0,0,0,0,0,0,0,0,0,0,0,0,0,0,0,0,0,
0,0,0,0,0,0,0,0,0,0,0,0,0,0,0,0,0,0,0,0,
0,0,0,0,0,0,0,0,0,0,0,0,0,0,0,0,0,0,0,0,
0,0,0,0,0,0,0,0,0,0,0,0,0,0,0,0,0,0,0,0,
0,0,0,0,0,0,0,0,0,0,0,0,0,0,0,0,0,0,0,0,
0,0,0,0,0,0,0,0,0,2300,0,0,0,0,0,0,0,0,0,0,
0,0,0,0,0,0,0,0,0,0,0,0,0,0,0,0,0,0,0,0,
0,0,0,0,0,0,0,0,0,0,0,0,0,0,0,0,0,0,0,0,
0,0,0,0,0,0,0,0,0,0,0,0,0,0,0,0,0,0,0,0,
0,0,0,0,0,0,0,0,0,0,0,0,0,0,0,0,0,0,0,0,
0,0,0,0,0,0,0,0,0,0,0,2147485948,2147485947,0,0,0,0,0,0,0,
0,0,0,0,0,0,0,0,0,0,0,2147485968,2147485967,0,0,0,0,0,0,0,
0,0,0,0,0,0,0,0,0,0,0,0,0,0,0,0,0,0,0,0
</data>
  </layer>
  <layer id="7" name="Lamparas" width="20" height="20">
   <data encoding="csv">
0,0,0,0,0,0,0,0,0,0,0,0,0,0,0,0,0,0,0,0,
0,0,0,0,0,0,0,0,0,0,0,0,0,0,0,0,0,0,0,0,
0,0,0,0,0,0,0,0,0,0,0,0,0,0,0,0,0,0,0,0,
0,0,0,0,0,0,0,0,0,0,0,0,0,0,0,0,0,0,0,0,
0,0,0,0,0,0,0,0,0,0,0,0,0,0,0,0,0,0,0,0,
0,0,0,0,0,0,0,0,0,0,0,0,0,0,0,0,0,0,0,0,
0,0,0,0,0,0,0,0,0,0,0,0,0,0,0,0,0,0,0,0,
0,0,0,0,0,0,0,0,0,0,0,0,0,0,0,0,0,0,0,0,
0,0,0,0,0,0,0,0,0,0,0,0,0,0,0,0,0,0,0,0,
0,0,0,0,0,0,0,0,0,0,0,0,0,0,0,0,0,0,0,0,
0,0,0,0,0,0,0,2291,0,0,0,0,0,0,0,0,0,0,0,0,
0,0,0,0,0,0,0,0,0,0,0,0,0,0,0,0,0,0,0,0,
0,0,0,0,0,0,0,0,0,0,0,0,0,0,2291,0,0,0,0,0,
0,0,0,0,0,0,0,0,0,0,0,0,0,0,0,0,0,0,0,0,
0,0,0,0,0,0,0,0,0,0,0,0,0,0,0,0,0,0,0,0,
0,0,0,0,0,0,0,0,0,0,0,0,0,0,0,0,0,0,0,0,
0,0,0,0,0,0,2291,0,0,0,0,0,0,0,0,2291,0,0,0,0,
0,0,0,0,0,0,0,0,0,0,0,0,0,0,0,0,0,0,0,0,
0,0,0,0,0,0,0,0,0,0,0,0,0,0,0,0,0,0,0,0,
0,0,0,0,0,0,0,0,0,0,0,0,0,0,0,0,0,0,0,0
</data>
  </layer>
  <layer id="22" name="Efectos" width="20" height="20">
   <data encoding="csv">
0,0,0,0,0,0,0,0,0,0,0,0,0,0,0,0,0,0,0,0,
0,0,0,0,0,0,0,0,0,0,0,0,0,0,0,0,0,0,0,0,
0,0,0,0,0,0,0,0,0,0,0,0,0,0,0,0,0,0,0,0,
0,0,0,0,0,0,0,0,0,0,0,0,0,0,0,0,0,0,0,0,
0,3514,3515,3516,0,0,0,0,0,0,0,0,0,0,0,0,0,0,0,0,
0,3519,3520,3521,0,0,0,0,0,0,0,0,0,0,0,0,0,0,0,0,
0,0,0,0,0,0,0,0,0,0,0,0,0,0,0,0,0,0,0,0,
0,0,0,0,0,0,0,0,0,0,0,0,0,0,0,0,0,0,0,0,
0,0,0,0,0,0,0,0,0,0,0,0,0,0,0,0,0,0,0,0,
0,0,0,0,0,0,3499,3500,3501,0,0,0,0,0,0,0,0,0,0,0,
0,0,0,0,0,0,3504,3505,3506,0,0,0,0,0,0,0,0,0,0,0,
0,0,0,0,0,0,3509,3510,3511,0,0,0,0,3499,3500,3501,0,0,0,0,
0,0,0,0,0,0,0,0,0,0,0,0,0,3504,3505,3506,0,0,0,0,
0,0,0,0,0,0,0,0,0,0,0,0,0,3509,3510,3511,0,0,0,0,
0,0,0,0,0,0,0,0,0,0,0,0,0,0,0,0,0,0,0,0,
0,0,0,0,0,3499,3500,3501,0,0,0,0,0,0,3499,3500,3501,0,0,0,
0,0,0,0,0,3504,3505,3506,0,0,0,0,0,0,3504,3505,3506,0,0,0,
0,0,0,0,0,3509,3510,3511,0,0,0,0,0,0,3509,3510,3511,0,0,0,
0,0,0,0,0,0,0,0,0,0,0,0,0,0,0,0,0,0,0,0,
0,0,0,0,0,0,0,0,0,0,0,0,0,0,0,0,0,0,0,0
</data>
  </layer>
 </group>
 <layer id="5" name="Topo" width="20" height="20">
  <data encoding="csv">
0,0,0,0,0,0,0,0,0,0,0,0,0,0,0,0,0,0,0,0,
0,0,0,0,0,0,0,0,0,0,0,0,0,0,0,0,0,0,0,0,
0,0,0,0,0,0,0,0,0,0,0,0,0,0,0,0,0,0,0,0,
0,0,0,0,0,0,0,0,0,0,0,0,0,0,0,0,0,0,0,0,
0,0,0,0,0,0,0,0,0,0,0,0,0,0,0,0,0,0,0,0,
0,0,0,0,0,0,0,0,0,0,0,0,0,0,0,0,0,0,0,0,
0,0,0,0,0,0,0,0,0,0,0,0,0,0,0,1849,1850,0,0,0,
0,0,0,0,0,0,0,0,0,0,0,0,0,0,0,1857,1858,0,0,0,
0,0,0,0,0,0,0,0,0,0,0,0,0,0,0,0,0,0,0,0,
0,0,0,0,0,0,0,0,0,0,0,0,0,0,0,0,0,0,0,0,
0,0,0,0,0,0,0,0,0,0,0,0,0,0,0,0,0,0,0,0,
0,0,0,0,0,0,0,0,0,0,0,0,0,0,0,0,0,0,0,0,
0,0,0,0,0,0,0,0,0,0,0,0,0,0,0,0,0,0,0,0,
0,0,0,0,0,0,0,0,0,0,0,0,0,0,0,0,0,0,0,0,
0,0,0,0,0,0,0,0,0,0,0,0,0,0,0,0,0,0,0,0,
0,0,0,0,0,0,0,0,0,0,0,0,0,0,0,0,0,0,0,0,
0,0,0,0,0,0,0,0,0,0,0,0,0,0,0,0,0,0,0,0,
0,0,0,0,0,0,0,0,0,0,0,0,0,0,0,0,0,0,0,0,
0,0,0,0,0,0,0,0,0,0,0,0,0,0,0,0,0,0,0,0,
0,0,0,0,0,0,0,0,0,0,0,0,0,0,0,0,0,0,0,0
</data>
 </layer>
 <layer id="21" name="Colisiones" width="20" height="20" visible="0">
  <data encoding="csv">
4136,4136,4136,4136,4136,4136,4136,4136,4136,4136,4136,4136,4136,4136,4136,4136,4136,4136,4136,4136,
4136,4136,4136,4136,4136,4136,4136,4136,4136,4136,4136,4136,4136,4136,4136,4136,4136,4136,4136,4136,
4136,4136,4136,4136,4136,4136,4136,4136,4136,4136,4136,4136,4136,4136,4136,4136,4136,4136,4136,4136,
4136,4136,4136,4136,4136,4136,4136,4136,4136,4136,4136,4136,4136,4136,4136,4136,4136,4136,4136,4136,
4136,4136,4136,4136,4136,4136,4136,4136,4136,4136,4136,4136,4136,4136,4136,4136,4136,0,0,4136,
4136,4136,4136,0,4136,4136,4136,4136,4136,4136,4136,4136,4136,4136,4136,4136,4136,0,0,4136,
4136,0,0,0,0,0,0,4136,4136,4136,4136,4136,4136,4136,4136,4136,4136,0,0,4136,
4136,0,0,0,0,0,0,0,0,0,0,0,4136,4136,4136,4136,4136,0,0,4136,
4136,4136,0,0,0,0,0,0,0,0,0,0,4136,4136,4136,0,0,0,0,4136,
4136,4136,0,0,0,0,0,0,0,0,0,0,0,0,0,0,0,4136,4136,4136,
4136,4136,0,0,0,0,0,4136,0,0,4136,4136,4136,0,0,0,4136,4136,4136,4136,
4136,4136,0,0,0,0,0,0,0,0,4136,4136,4136,0,4136,0,4136,4136,4136,4136,
4136,4136,0,0,0,0,0,0,0,0,0,0,0,0,4136,0,4136,4136,4136,4136,
4136,4136,0,0,4136,0,0,0,0,0,0,0,0,0,0,0,4136,4136,4136,4136,
4136,4136,4136,0,4136,0,0,0,0,0,0,0,0,0,0,4136,4136,4136,4136,4136,
4136,4136,4136,0,0,0,0,0,0,0,0,0,0,0,0,4136,4136,4136,4136,4136,
4136,4136,0,0,0,0,4136,0,0,0,4136,0,0,0,0,4136,4136,4136,4136,4136,
4136,0,0,4136,4136,0,0,0,0,0,0,0,0,0,0,4136,4136,4136,4136,4136,
4136,4136,4136,4136,4136,4136,4136,4136,0,0,0,0,0,4136,4136,4136,4136,4136,4136,4136,
4136,4136,4136,4136,4136,4136,4136,4136,4136,4136,0,4136,4136,4136,4136,4136,4136,4136,4136,4136
</data>
 </layer>
</map>
